svg/weather/moon_fog_line.svg

<?xml version="1.0" encoding="UTF-8"?>
<svg width="24px" height="24px" viewBox="0 0 24 24" version="1.1" xmlns="http://www.w3.org/2000/svg" xmlns:xlink="http://www.w3.org/1999/xlink">
    <title>moon_fog_line</title>
    <g id="Icon" stroke="none" stroke-width="1" fill="none" fill-rule="evenodd">
        <g id="Weather" transform="translate(-577.000000, -96.000000)">
            <g id="moon_fog_line" transform="translate(577.000000, 96.000000)">
                <path d="M24,0 L24,24 L0,24 L0,0 L24,0 Z M12.5935,23.2578 L12.5819,23.2595 L12.5109,23.295 L12.4919,23.2987 L12.4767,23.295 L12.4057,23.2595 C12.3958,23.2564 12.387,23.259 12.3821,23.2649 L12.378,23.2758 L12.3609,23.7031 L12.3659,23.7235 L12.3769,23.7357 L12.4805,23.8097 L12.4953,23.8136 L12.5071,23.8097 L12.6107,23.7357 L12.6233,23.7197 L12.6267,23.7031 L12.6096,23.2758 C12.6076,23.2657 12.601,23.2593 12.5935,23.2578 Z M12.8584,23.1453 L12.8445,23.1473 L12.6598,23.2397 L12.6499,23.2499 L12.6472,23.2611 L12.6651,23.6906 L12.6699,23.7034 L12.6784,23.7105 L12.8793,23.8032 C12.8914,23.8069 12.9022,23.803 12.9078,23.7952 L12.9118,23.7812 L12.8777,23.1665 C12.8753,23.1546 12.8674,23.147 12.8584,23.1453 Z M12.143,23.1473 C12.1332,23.1424 12.1222,23.1453 12.1156,23.1526 L12.1099,23.1665 L12.0758,23.7812 C12.0751,23.7927 12.0828,23.8019 12.0926,23.8046 L12.1083,23.8032 L12.3092,23.7105 L12.3186,23.7024 L12.3225,23.6906 L12.3404,23.2611 L12.3372,23.2485 L12.3278,23.2397 L12.143,23.1473 Z" id="MingCute" fill-rule="nonzero"></path>
                <path d="M13.4403,2.12947 C13.0607,2.0604 12.6752,2.21587 12.4497,2.52899 C12.2243,2.84211 12.1991,3.257 12.385,3.59511 C12.7767,4.30765 13,5.1262 13,5.99988 C13,8.76131 10.7614,10.9999 7.99998,10.9999 C7.12625,10.9999 6.30766,10.7766 5.59509,10.3848 C5.25699,10.1989 4.8421,10.2241 4.52898,10.4496 C4.21586,10.675 4.06037,11.0605 4.12943,11.4401 C4.25656,12.1389 4.47444,12.8061 4.77031,13.429 C5.00729,13.9279 5.6038,14.1402 6.10266,13.9032 C6.50351,13.7128 6.71934,13.2902 6.66572,12.8727 C7.09794,12.9562 7.54407,12.9999 7.99998,12.9999 C11.866,12.9999 15,9.86588 15,5.99988 C15,5.56949 14.961,5.14781 14.8864,4.73833 C16.7422,5.75873 18,7.7331 18,9.99998 C18,10.922 17.7927,11.7928 17.4231,12.5708 C17.1861,13.0697 17.3984,13.6662 17.8973,13.9032 C18.3962,14.1402 18.9927,13.9279 19.2297,13.429 C19.7239,12.3885 20,11.2251 20,9.99998 C20,6.07277 17.1712,2.80835 13.4403,2.12947 Z M3,16 C3,15.4477 3.44772,15 4,15 L20,15 C20.5523,15 21,15.4477 21,16 C21,16.5523 20.5523,17 20,17 L4,17 C3.44772,17 3,16.5523 3,16 Z M6,20 C6,19.4477 6.44772,19 7,19 L17,19 C17.5523,19 18,19.4477 18,20 C18,20.5523 17.5523,21 17,21 L7,21 C6.44772,21 6,20.5523 6,20 Z" id="形状" fill="#09244B"></path>
            </g>
        </g>
    </g>
</svg>

<svg xmlns="http://www.w3.org/2000/svg" width="24" height="24"><g fill="none" fill-rule="evenodd"><path d="M24 0v24H0V0h24ZM12.594 23.258l-.012.002-.071.035-.02.004-.014-.004-.071-.036c-.01-.003-.019 0-.024.006l-.004.01-.017.428.005.02.01.013.104.074.015.004.012-.004.104-.074.012-.016.004-.017-.017-.427c-.002-.01-.009-.017-.016-.018Zm.264-.113-.014.002-.184.093-.01.01-.003.011.018.43.005.012.008.008.201.092c.012.004.023 0 .029-.008l.004-.014-.034-.614c-.003-.012-.01-.02-.02-.022Zm-.715.002a.023.023 0 0 0-.027.006l-.006.014-.034.614c0 .012.007.02.017.024l.015-.002.201-.093.01-.008.003-.011.018-.43-.003-.012-.01-.01-.184-.092Z"/><path fill="#09244B" d="M13.44 2.13a1 1 0 0 0-1.055 1.465 5 5 0 0 1-6.79 6.79A1 1 0 0 0 4.13 11.44a7.95 7.95 0 0 0 .641 1.989 1 1 0 0 0 1.896-.556 7 7 0 0 0 8.22-8.134 6 6 0 0 1 2.537 7.832 1 1 0 1 0 1.807.858 8.002 8.002 0 0 0-5.79-11.3ZM3 16a1 1 0 0 1 1-1h16a1 1 0 1 1 0 2H4a1 1 0 0 1-1-1Zm3 4a1 1 0 0 1 1-1h10a1 1 0 1 1 0 2H7a1 1 0 0 1-1-1Z"/></g></svg>
